!!!COM: Monteverdi, Claudio
!!!CDT: 1567/05/15/-1643/11/29/
!!!OTL: Maria quid ploras
!!!OTL2: Dorinda
!!!ONM: No. 9
!!!SMS: Musica tolta da i madrigali di Claudio Monteverdi, e d'altri autori, e fatta spirituale
!!!PPR: A. Coppini, ed.
!!!PPP: Milan
!!!PDT: 1607
!!!URL: http://www.jpj.dk/coppini.htm
!!!AIN: contrafacta
**kern	**kern	**kern	**kern	**kern
*staff5	*staff4	*staff3	*staff2	*staff1
*Ivox	*Ivox	*Ivox	*Ivox	*Ivox
!basso	!tenore	!alto	!quinto	!canto
*clefF4	*clefGv2	*clefG2	*clefG2	*clefG2
*k[b-]	*k[b-]	*k[b-]	*k[b-]	*k[b-]
*M4/4	*M4/4	*M4/4	*M4/4	*M4/4
*MM120	*MM120	*MM120	*MM120	*MM120
=1-	=1-	=1-	=1-	=1-
4r	4r	4r	4r	4r
4G\	4d\	4g/	4bn\	4dd\
2C/	2c\	2g/	2cc\	2ee-\
=2	=2	=2	=2	=2
1BB-	1f	1b-	1dd	1ff
=3	=3	=3	=3	=3
4r	4r	4r	4r	4r
4B-\	4d\	4b-\	4dd\	4ff\
2E-\	2g\	2b-\	2ee-\	2gg\
=4	=4	=4	=4	=4
1D	[1f	[1dd	[1ff	[1aa
=5	=5	=5	=5	=5
2BBn/	4f\]	4dd\]	4ff\]	4aa\]
.	4g\	4dd\	4dd\	4gg\
2C/	2e\	2cc\	2ee\	2gg\
=6	=6	=6	=6	=6
4.F\	2c\	1f	[1ff	8.ff\L
.	.	.	.	16gg\Jk
.	.	.	.	[4aa\
8E\	.	.	.	.
4D\	2d\	.	.	2aa\_
4D\	.	.	.	.
=7	=7	=7	=7	=7
1C	2e\	1r	4ff\]	4aa\]
.	.	.	4ee\	4gg\
.	2e\	.	2ee\	2gg\
=8	=8	=8	=8	=8
2.D\	[1A	1r	4dd\	4ff\
.	.	.	4ee\	4gg\
.	.	.	[2ff\	[2aa\
4E\	.	.	.	.
=9	=9	=9	=9	=9
4F\	4A/]	1r	2ff\]	2aa\_
4G\	4Bn\	.	.	.
[2A\	4c#\	.	4ee\	4aa\]
.	4d\	.	[4dd\	4ff\
=10	=10	=10	=10	=10
2A\]	2e\	1r	4dd\]	2ee\
.	.	.	4cc#\	.
2D\	2f#\	.	2dd\	2dd\
=11	=11	=11	=11	=11
1r	8r	1r	8r	8r
.	8d\	.	8f/	8a/
.	8d\	.	8f/	8a/
.	8d\	.	8f/	8a/
.	8d\	.	8f/	8a/
.	8d\	.	8f/	8a/
.	8d\	.	8f/	8dd\
.	8d\	.	8f/	8cc\
=12	=12	=12	=12	=12
1r	4G/	1r	4g/	4b-\
.	8G/	.	8g/	8a/
.	8G/	.	8g/	8g/
.	2d\	.	2f#/	2a/
=13	=13	=13	=13	=13
2r	2G/	2r	2g/	2g/
8r	8r	8r	8r	8r
8G\	8g\	8d/	8bn\	8dd\
8G\	8g\	8d/	8b\	8dd\
8G\	8g\	8d/	8b\	8dd\
=14	=14	=14	=14	=14
8G\	8g\	8d/	8bn\	8dd\
8G\	8g\	8d/	8b\	8dd\
8G\	8g\	8d/	8b\	8gg\
8G\	8g\	8d/	8b\	8ff\
4C/	4g\	4e-/	4cc\	4ee-\
8C/	8f\	8f/	8cc\	8dd\
8C/	8e-\	8g/	8cc\	8cc\
=15	=15	=15	=15	=15
2G\	2d\	2g/	2bn\	2dd\
2C/	2e\	2g/	2cc\	2cc\
=16	=16	=16	=16	=16
8r	1r	1r	8r	2r
8F\	.	.	8a/	.
8F\	.	.	8a/	.
8F\	.	.	8a/	.
4F\	.	.	4a/	8r
.	.	.	.	8cc\
8F\	.	.	8a/	8cc\
8F\	.	.	8a/	8cc\
=17	=17	=17	=17	=17
4E-\	1r	1r	2g/	4cc\
4E-\	.	.	.	8cc\
.	.	.	.	8cc\
2D\	.	.	4f#/	4cc\
.	.	.	[4g/	4b-\
=18	=18	=18	=18	=18
2D\	1r	1r	4g/]	2a/
.	.	.	4f#/	.
2r	.	.	2g/	2g/
=19	=19	=19	=19	=19
4r	4r	4r	4r	4r
4G\	4d\	4g/	4bn\	4dd\
4.G\	4.d\	4.g/	4.b\	4.dd\
8G\	8d\	8g/	8b\	8dd\
=20	=20	=20	=20	=20
4G\	4d\	4g/	4bn\	4dd\
4c\	4c\	4g/	4cc\	4ee\
2B-\	2f\	2b-\	2dd\	2ff\
=21	=21	=21	=21	=21
2B-\	8f\	2b-\	8dd\	2ff\
.	8f\	.	8dd\	.
.	8f\	.	8dd\	.
.	8e\	.	8ee\	.
8r	2d\	8r	4ff\	8r
8B-\	.	8b-\	.	8ff\
8B-\	.	8b-\	[4dd\	8ff\
8A\	.	8cc\	.	8ff\
=22	=22	=22	=22	=22
4G\	2g\	4dd\	4dd\]	4gg\
4e-\	.	4cc\	2gg\	4gg\
2d\	2d\	2a/	.	2aa\
.	.	.	4ff#\	.
=23	=23	=23	=23	=23
2G\	2d\	2bn\	2gg\	2gg\
4r	2r	4r	4r	4r
4G\	.	4g/	4bn\	4dd\
=24	=24	=24	=24	=24
2G\	1r	2g/	2bn\	2dd\
2G\	.	2g/	2b\	2dd\
=25	=25	=25	=25	=25
2D\	1r	2a/	2dd\	2ff\
2G\	.	2g/	2bn\	2dd\
=26	=26	=26	=26	=26
2C/	1r	2g/	2cc\	2ee-\
4C/	.	4g/	4bn\	4dd\
4C/	.	4g/	4a/	4cc\
=27	=27	=27	=27	=27
[1G	2r	[1g	[1bn	[1dd
.	4r	.	.	.
.	4d\	.	.	.
=28	=28	=28	=28	=28
2G\]	2d\	2g/]	2b\]	2dd\]
2r	2d\	2r	4dd\	4ff\
.	.	.	[4ff\	[4dd\
=29	=29	=29	=29	=29
1r	2A/	1r	4ff\]	4dd\]
.	.	.	2ee\	2cc\
.	2d\	.	.	.
.	.	.	[4dd\	[4b-\
=30	=30	=30	=30	=30
1r	2G/	1r	4dd\]	4b-\]
.	.	.	4cc\	4a/
.	4G/	.	4cc\	4a/
.	4G/	.	4b-\	4g/
=31	=31	=31	=31	=31
1r	1d	1r	2a/	2f#/
.	.	.	2a/	2f#/
=32	=32	=32	=32	=32
4d\	4f\	4a/	1r	1r
2B-\	2d\	2g/	.	.
[4A\	[4c\	[4f/	.	.
=33	=33	=33	=33	=33
4A\]	4c\]	4f/]	1r	1r
2G\	2B-\	4e-/	.	.
.	.	4d/	.	.
4F\	4A/	[4d/	.	.
=34	=34	=34	=34	=34
4F\	4A/	4d/]	1r	1r
4E-\	4G/	4c/	.	.
2D\	2A/	2d/	.	.
=35	=35	=35	=35	=35
2D\	2A/	4d/	2r	2r
.	.	4a/	.	.
4d\	2r	2a/	4ff\	4dd\
[4d\	.	.	[4dd\	[4ff\
=36	=36	=36	=36	=36
4d\]	1r	2a/	4dd\]	4ff\]
4A\	.	.	2cc\	2ee\
2B-\	.	[2f/	.	.
.	.	.	[4b-\	[4dd\
=37	=37	=37	=37	=37
2F\	1r	4f/]	4b-\]	4dd\]
.	.	4f/	2a/	2cc\
[2G\	.	[2d/	.	.
.	.	.	[4a/	[4cc\
=38	=38	=38	=38	=38
4G\]	1r	4d/]	4a/]	4cc\]
4G\	.	4d/	4g/	4b-\
[2D\	.	[2d/	[2f#/	[2a/
=39	=39	=39	=39	=39
2D\]	1r	2d/]	2f#/]	2a/]
2D\	.	2d/	2f#/	2a/
=40	=40	=40	=40	=40
1r	4r	1r	4r	4r
.	8d\	.	8f#/	8a/
.	8d\	.	8f#/	8a/
.	4d\	.	4f#/	4a/
.	8d\	.	8f#/	8a/
.	8d\	.	8f#/	8a/
=41	=41	=41	=41	=41
1r	4d\	1r	4f#/	4a/
.	4g\	.	4g/	4b-\
.	4f\	.	8a/	4cc\
.	.	.	8b-\	.
.	4a\	.	[4cc\	4cc\
=42	=42	=42	=42	=42
1r	2g\	1r	4cc\]	2dd\
.	.	.	4bn\	.
.	2c\	.	2cc\	2cc\
=43	=43	=43	=43	=43
1r	2f\	1r	2a/	4cc\
.	.	.	.	2dd\
.	4.e-\	.	4.g/	.
.	.	.	.	4g/
.	8e-\	.	8a/	.
=44	=44	=44	=44	=44
1r	4e-\	1r	4b-\	4g/
.	4e-\	.	4g/	4g/
.	2d\	.	2f#/	2a/
=45	=45	=45	=45	=45
2r	2G/	2r	2g/	2g/
4r	4r	4r	4r	4r
8G\	8d\	8g/	8bn\	8dd\
8G\	8d\	8g/	8b\	8dd\
=46	=46	=46	=46	=46
4G\	4d\	4g/	4bn\	4dd\
8G\	8d\	8g/	8b\	8dd\
8G\	8d\	8g/	8b\	8dd\
4G\	4d\	4g/	4b\	4dd\
4c\	4c\	4g/	4cc\	4ee\
=47	=47	=47	=47	=47
4B-\	4f\	4b-\	8dd\	4ff\
.	.	.	8ee\	.
4d\	4d\	4a/	2ff\	4ff\
2c\	2g\	2cc\	.	2gg\
.	.	.	4ee\	.
=48	=48	=48	=48	=48
2F\	2a\	2.cc\	2ff\	2ff\
2c\	4r	.	2ee\	4gg\
.	4e\	4a/	.	[4aa\
=49	=49	=49	=49	=49
4.B-\	4.f\	4.d/	4.dd\	4aa\]
.	.	.	.	4dd\
8B-\	8f\	8d/	8ee\	.
4B-\	4f\	4d/	4ff\	4dd\
4B-\	4g\	4d/	4dd\	4dd\
=50	=50	=50	=50	=50
2A\	2e\	2a/	2cc#\	2ee\
2D\	[2f\	2a/	2dd\	2dd\
=51	=51	=51	=51	=51
2F\	4f\]	4a/	2a/	4cc\
.	4A/	4d/	.	2dd\
4.E-\	4.B-\	4.G/	4.g/	.
.	.	.	.	4g/
8E-\	8B-\	8G/	8a/	.
=52	=52	=52	=52	=52
4E-\	4B-\	4G/	4b-\	4g/
4E-\	4c\	4G/	4g/	4g/
2D\	2A/	2d/	2f#/	2a/
=53	=53	=53	=53	=53
1G;	1G;	1d;	1g;	1bn;
==	==	==	==	==
*-	*-	*-	*-	*-
!!!ENC: Craig Stuart Sapp
!!!END: 2004/12/10/
